assets/icons/standard/reward.svg

<?xml version="1.0"?><svg xmlns="http://www.w3.org/2000/svg" width="100" height="100" viewBox="0 0 100 100"><path fill="#fff" d="m46.7 63.4l-11.7 16.6-3-8h-8l10.2-13.9c2 1.2 4.1 1.4 5.6 1.7 0.5 0.1 1.1 0.2 1.4 0.2 0.2 0.1 0.7 0.5 1 0.8 1.2 0.8 2.7 2 4.5 2.6z m19.1-5.3c-2 1.2-4.1 1.4-5.6 1.7-0.5 0.1-1.2 0.2-1.5 0.2-0.2 0.1-0.7 0.5-1 0.8-1.1 0.8-2.5 2-4.4 2.6l11.7 16.6 3-8h8l-10.2-13.9z m-15.8-26.1c-3.9 0-7 3.1-7 7s3.1 7 7 7 7-3.1 7-7-3.1-7-7-7z m19 7c0 2.4-2.6 4.3-3.5 6.4-0.9 2.2-0.4 5.4-2.1 7-1.6 1.6-4.8 1.2-7 2.1-2.1 0.9-4 3.5-6.4 3.5s-4.3-2.6-6.4-3.5c-2.2-0.9-5.4-0.4-7-2.1-1.6-1.6-1.2-4.8-2.1-7-0.9-2.1-3.5-4-3.5-6.4 0-2.4 2.6-4.3 3.5-6.4 0.9-2.2 0.4-5.4 2.1-7 1.6-1.6 4.8-1.2 7-2.1 2.1-0.9 4-3.5 6.4-3.5s4.3 2.6 6.4 3.5c2.2 0.9 5.4 0.4 7 2.1 1.6 1.6 1.2 4.8 2.1 7 0.9 2.1 3.5 4 3.5 6.4z m-6 0c0-7.2-5.8-13-13-13s-13 5.8-13 13 5.8 13 13 13 13-5.8 13-13z"></path></svg>

<svg xmlns="http://www.w3.org/2000/svg" x="0px" y="0px" width="100" height="100"
	 viewBox="0 0 100 100" enable-background="new 0 0 100 100" xml:space="preserve">
<path fill="#FFFFFF" d="M46.7,63.4L35,80l-3-8h-8l10.2-13.9c2,1.2,4.1,1.4,5.6,1.7c0.5,0.1,1.1,0.2,1.4,0.2c0.2,0.1,0.7,0.5,1,0.8
	C43.4,61.6,44.9,62.8,46.7,63.4z M65.8,58.1c-2,1.2-4.1,1.4-5.6,1.7C59.7,59.9,59,60,58.7,60c-0.2,0.1-0.7,0.5-1,0.8
	c-1.1,0.8-2.5,2-4.4,2.6L65,80l3-8h8L65.8,58.1z M50,32c-3.9,0-7,3.1-7,7s3.1,7,7,7s7-3.1,7-7S53.9,32,50,32z M69,39
	c0,2.4-2.6,4.3-3.5,6.4c-0.9,2.2-0.4,5.4-2.1,7c-1.6,1.6-4.8,1.2-7,2.1c-2.1,0.9-4,3.5-6.4,3.5s-4.3-2.6-6.4-3.5
	c-2.2-0.9-5.4-0.4-7-2.1c-1.6-1.6-1.2-4.8-2.1-7c-0.9-2.1-3.5-4-3.5-6.4c0-2.4,2.6-4.3,3.5-6.4c0.9-2.2,0.4-5.4,2.1-7
	c1.6-1.6,4.8-1.2,7-2.1c2.1-0.9,4-3.5,6.4-3.5s4.3,2.6,6.4,3.5c2.2,0.9,5.4,0.4,7,2.1c1.6,1.6,1.2,4.8,2.1,7
	C66.4,34.7,69,36.6,69,39z M63,39c0-7.2-5.8-13-13-13s-13,5.8-13,13s5.8,13,13,13S63,46.2,63,39z"/>
</svg>
